X:1
T:Bey guter Zeit
T:Georg Vogler
T:Source : Catechismus---Würzburg---J.Volmari---1652. Editor : André Vierendeels (27/09/17).
T:Notes : Original clefs : C1, F4 Original note values have been halved Text Middle German Editorial accidentals above the staff 
T:Bey guter Zeit
T:©
T:©
C:Georg Vogler
Z:©
%%score [ 1 2 ]
L:1/8
Q:1/4=120
M:2/2
K:C
V:1 treble nm="Soprano" snm="S"
V:2 bass nm="Bass" snm="B"
V:1
"^1)" D4 A4 | F4 G4 | G2 F2 E4 | D4 F2 G2 | A2 c2 B4 | A2- A2 A4 | _B2 A2 G2 F2 | E2 F2 D4 | %8
w: Bey gu-|ter Zeit|dich schla- ffen|leg, fol- gend'|Stück lasz kei-|nen _ weg:|dein Vat- ter und|dein Mut- ter|
w: Und eh'|du zeugst|die Kley- der|ausz, Durch- such|dein Hertz, duch-|kehr dein Hausz,|hin- ein in dein|Ge- wis- sen|
 F4 F2 F2 | G4 F2 E2 | D4 C4 | D4 A2 A2 | F2 A2 G4 | F4 E4 | A4 G2 F2 | E2 D2 F2 G2 | E4 D4 |] %17
w: Grüsz, Er- laub-|nutz bitt mit|Wor- ten|süsz dein recht|Hand _ küsz,|sag gut|Nacht und gib|auff ih- ren Se-|gen acht.|
w: brech, und guck|was in dem|Du- sen|stect, un- der|Banck, hin- ter|der Thür,|Such al- les|auff, bring al- *|les für.|
V:2
"^2)""^1)""^3)" D,4 D,4 | D,4 G,,4 | C,2 D,2 A,,4 | D,4 D,2 C,2 | F,,2 A,,2 E,2 E,2 | A,,4 D,4 | %6
w: Bey gu-|ter Zeit|dich schla- ffen|leg, fol- gend'|Stûck lasz _ kei-|nen weg:|
w: Für Chri-|stum dei-|nen Rich- ter|tritt, zum Für-|sprech nimb Ma- ri-|a mit,|
 G,,2 A,,2 B,,2 D,2 |"^b" A,,2 A,,2 D,4 | D,4 F,2 D,2 | C,4 F,,2 C,2 | D,4 A,,4 | D,4 D,2 F,2 | %12
w: dein Vat- ter und|dein Mut- ter|Grüsz, er- laub-|nutz bitt mir|Wor- ten|süsz dein _|
w: auff bey- de Knye|da ni- der|fall, Danck Gott|umb sei- ne|Ga- ben|all die Gött-|
 D,2 A,,2 C,4 | D,4 A,,4 | A,,4 C,2 D,2 | A,,2 D,2 B,,2 G,,2 |"^b" A,,4 D,4 |] %17
w: recht Hand küsz,|sag gut|Nacht und gib|auff ih- ren Se-|gen acht.|
w: liche Wol- tha-|ten such|im Her- *|tzen dei- nem Rech-|ten- buch.|

